X:1
T:Title
%%score 1 { 2 | 3 }
L:1/8
Q:1/4=135
M:3/4
K:G
V:1 treble nm="Grand Piano, Soprano"
V:2 bass nm="Choir Pad, Indore, Andrew Byers, 1907"
V:3 bass 
V:1
 [DG]4 [EG]2 | [DG]4 [DG]2 | [DB]4 [DG]2 | [CE]2 [B,D]4 | [DA]4 [DA]2 | [CA]2 [B,G]2 [DA]2 | %6
w: By~Andrew~Linnaeus~Byers,~1907 *||||||
 [DB]4 [Gd]2 | [Fd]6 | [DG]4 [DG]2 | [GB]4 G2 | [Gd]4 [Ge]2 | [Gd]2 [DB]4 | [EG]4 [CE]2 | %13
w: |||||||
 D4 [B,G][CA] | [DG]4 [DF]2 | [DG]6 | [Fd]4 [Gd]2 | [Fd]4 D2 | [DG]4 [DA]2 | [DB]2 [DG]4 | %20
w: |||||||
 [FA]4 [Fd]2 | [GB]4 [DG]2 | [DF]4 [^CE]2 | D6 | [DB]4 [GB]2 | [GB]2 [DA]2 [DG]2 | [EG]4 [Ec]2 | %27
w: |||||||
 [Ge]2 [Gd]4 | [DG]4 [EG]2 | G4 [EA]2 | [DG]6 | [DF]6 | [DG]6- | [DG]6 |] %34
w: |||||||
V:2
 B,4 C2 | B,4 B,2 | G,4 B,2 | G,2 G,4 | F,4 F,2 | F,2 G,2 F,2 | G,4 B,2 | A,6 | B,4 B,2 | D4 B,2 | %10
 B,4 C2 | B,2 G,4 | C4 G,2 | G,4 G,2 | B,4 A,2 | B,6 | A,4 B,2 | A,4 F,2 | G,4 F,2 | G,2 B,4 | %20
 D4 D2 | D4 B,2 | A,4[K:bass] G,2 | F,6 | G,4 D2 | D2[K:treble] C2 B,2 | C4 C2 | C2[K:bass] B,4 | %28
 B,4 B,2 | D4 C2 | B,6 | A,4 C2 | B,6- | B,6 |] %34
V:3
 G,4 G,2 | G,4 G,2 | z2 z2 G,2 | z6 | D,4 D,2 | D,4 D,2 | z2 z2 G,2 | D,6 | G,4 G,2 | G,4 G,2 | %10
 G,4 G,2 | G,2 z2 z2 | C,4 C,2 | B,,4 E,2 | D,4 D,2 | G,,6 | D,4 D,2 | D,4 D,C, | B,,4 D,2 | %19
 z2 G,4 | D,4 D,2 | G,4 G,2 | z2 z2 A,,2 | D,6 | z2 z2 G,2 | G,4 G,2 | C,4 C,2 | G,2 G,4 | %28
 G,4 E,2 | B,,4 C,2 | D,6 | D,6 | G,,6- | G,,6 |] %34

